src/assets/images/avatar.svg

<svg height="32" viewBox="0 0 32 32" width="32" xmlns="http://www.w3.org/2000/svg"><g fill="none" fill-rule="evenodd"><circle cx="16" cy="16" fill="#b3bfd0" r="16"/><g fill="#fff" fill-rule="nonzero" transform="translate(7 7)"><path d="m14.2391061 18h-12.71061448c-.84268156 0-1.52849162-.6850446-1.52849162-1.5267857v-12.69642859c0-.84174107.68581006-1.52678571 1.52849162-1.52678571h12.71061448c.8426816 0 1.5284917.68504464 1.5284917 1.52678571v12.69642859c0 .8417411-.6858101 1.5267857-1.5284917 1.5267857zm-12.71061448-14.30357143c-.04223464 0-.08044693.03816964-.08044693.08035714v12.69642859c0 .0421875.03821229.0803571.08044693.0803571h12.71061448c.0422347 0 .080447-.0381696.080447-.0803571v-12.69642859c0-.0421875-.0382123-.08035714-.080447-.08035714z"/><path d="m14.2391061 8.59821429h-12.71061448c-.84268156 0-1.52849162-.68504465-1.52849162-1.52678572v-3.29464286c0-.84174107.68581006-1.52678571 1.52849162-1.52678571h12.71061448c.8426816 0 1.5284917.68504464 1.5284917 1.52678571v3.29464286c0 .84174107-.6858101 1.52678572-1.5284917 1.52678572zm-12.71061448-4.90178572c-.04223464 0-.08044693.03816964-.08044693.08035714v3.29464286c0 .0421875.03821229.08035714.08044693.08035714h12.71061448c.0422347 0 .080447-.03816964.080447-.08035714v-3.29464286c0-.0421875-.0382123-.08035714-.080447-.08035714z"/><path d="m9.79441341 6.14732143h-7.01899442c-.40022346 0-.72402234-.3234375-.72402234-.72321429 0-.39977678.32379888-.72321428.72402234-.72321428h7.01899442c.40022349 0 .72402239.3234375.72402239.72321428 0 .39977679-.3237989.72321429-.72402239.72321429z"/><path d="m12.0670391 5.42410714c0 .39942022.3241559.72321429.7240224.72321429s.7240223-.32379407.7240223-.72321429-.3241558-.72321428-.7240223-.72321428-.7240224.32379406-.7240224.72321428z"/><path d="m16.4715084 15.75h-1.427933v-1.4464286h1.427933c.0422346 0 .0804469-.0381696.0804469-.0803571v-12.69642859c0-.0421875-.0382123-.08035714-.0804469-.08035714h-12.71061455c-.04223463 0-.08044692.03816964-.08044692.08035714v1.44642858h-1.4480447v-1.44642858c0-.84174107.68581006-1.52678571 1.52849162-1.52678571h12.71061455c.8426815 0 1.5284916.68504464 1.5284916 1.52678571v12.69642859c0 .8417411-.6858101 1.5267857-1.5284916 1.5267857z"/></g></g></svg>

<?xml version="1.0" encoding="UTF-8"?>
<svg width="32px" height="32px" viewBox="0 0 32 32" version="1.1" xmlns="http://www.w3.org/2000/svg" xmlns:xlink="http://www.w3.org/1999/xlink">
    <!-- Generator: Sketch 50 (54983) - http://www.bohemiancoding.com/sketch -->
    <title>头像/人头像/ 40px copy</title>
    <desc>Created with Sketch.</desc>
    <defs>
        <circle id="path-1" cx="16" cy="16" r="16"></circle>
    </defs>
    <g id="🔥企业开源软件管理" stroke="none" stroke-width="1" fill="none" fill-rule="evenodd">
        <g id="项目管理总览--高级查询" transform="translate(-274.000000, -542.000000)">
            <g id="Group-21-Copy-3" transform="translate(263.000000, 503.000000)">
                <g id="头像/人头像/-40px-copy" transform="translate(11.000000, 39.000000)">
                    <g id="State">
                        <mask id="mask-2" fill="white">
                            <use xlink:href="#path-1"></use>
                        </mask>
                        <use id="Avatar" fill="#B3BFD0" xlink:href="#path-1"></use>
                    </g>
                    <g id="项目" transform="translate(7.000000, 7.000000)" fill="#FFFFFF" fill-rule="nonzero">
                        <path d="M14.2391061,18 L1.52849162,18 C0.685810056,18 0,17.3149554 0,16.4732143 L0,3.77678571 C0,2.93504464 0.685810056,2.25 1.52849162,2.25 L14.2391061,2.25 C15.0817877,2.25 15.7675978,2.93504464 15.7675978,3.77678571 L15.7675978,16.4732143 C15.7675978,17.3149554 15.0817877,18 14.2391061,18 Z M1.52849162,3.69642857 C1.48625698,3.69642857 1.44804469,3.73459821 1.44804469,3.77678571 L1.44804469,16.4732143 C1.44804469,16.5154018 1.48625698,16.5535714 1.52849162,16.5535714 L14.2391061,16.5535714 C14.2813408,16.5535714 14.3195531,16.5154018 14.3195531,16.4732143 L14.3195531,3.77678571 C14.3195531,3.73459821 14.2813408,3.69642857 14.2391061,3.69642857 L1.52849162,3.69642857 Z" id="Shape"></path>
                        <path d="M14.2391061,8.59821429 L1.52849162,8.59821429 C0.685810056,8.59821429 0,7.91316964 0,7.07142857 L0,3.77678571 C0,2.93504464 0.685810056,2.25 1.52849162,2.25 L14.2391061,2.25 C15.0817877,2.25 15.7675978,2.93504464 15.7675978,3.77678571 L15.7675978,7.07142857 C15.7675978,7.91316964 15.0817877,8.59821429 14.2391061,8.59821429 Z M1.52849162,3.69642857 C1.48625698,3.69642857 1.44804469,3.73459821 1.44804469,3.77678571 L1.44804469,7.07142857 C1.44804469,7.11361607 1.48625698,7.15178571 1.52849162,7.15178571 L14.2391061,7.15178571 C14.2813408,7.15178571 14.3195531,7.11361607 14.3195531,7.07142857 L14.3195531,3.77678571 C14.3195531,3.73459821 14.2813408,3.69642857 14.2391061,3.69642857 L1.52849162,3.69642857 Z" id="Shape"></path>
                        <path d="M9.79441341,6.14732143 L2.77541899,6.14732143 C2.37519553,6.14732143 2.05139665,5.82388393 2.05139665,5.42410714 C2.05139665,5.02433036 2.37519553,4.70089286 2.77541899,4.70089286 L9.79441341,4.70089286 C10.1946369,4.70089286 10.5184358,5.02433036 10.5184358,5.42410714 C10.5184358,5.82388393 10.1946369,6.14732143 9.79441341,6.14732143 Z" id="Shape"></path>
                        <path d="M12.0670391,5.42410714 C12.0670391,5.82352736 12.391195,6.14732143 12.7910615,6.14732143 C13.190928,6.14732143 13.5150838,5.82352736 13.5150838,5.42410714 C13.5150838,5.02468692 13.190928,4.70089286 12.7910615,4.70089286 C12.391195,4.70089286 12.0670391,5.02468692 12.0670391,5.42410714 Z" id="Shape"></path>
                        <path d="M16.4715084,15.75 L15.0435754,15.75 L15.0435754,14.3035714 L16.4715084,14.3035714 C16.513743,14.3035714 16.5519553,14.2654018 16.5519553,14.2232143 L16.5519553,1.52678571 C16.5519553,1.48459821 16.513743,1.44642857 16.4715084,1.44642857 L3.76089385,1.44642857 C3.71865922,1.44642857 3.68044693,1.48459821 3.68044693,1.52678571 L3.68044693,2.97321429 L2.23240223,2.97321429 L2.23240223,1.52678571 C2.23240223,0.685044643 2.91821229,0 3.76089385,0 L16.4715084,0 C17.3141899,0 18,0.685044643 18,1.52678571 L18,14.2232143 C18,15.0649554 17.3141899,15.75 16.4715084,15.75 Z" id="Shape"></path>
                    </g>
                </g>
            </g>
        </g>
    </g>
</svg>
